X:1
T:He that has made his refuge God
T:He that has made his refuge God - Refuge (John Massey)
C:John Massey
Z:p2, Sacred Music,
Z:Manchester: [c1810]
%%score [ 1 2 3 4 ]
L:1/8
M:2/2
K:A
V:1 treble nm="Soprano" snm="S."
V:2 treble nm="Alto" snm="A."
V:3 treble-8 transpose=-12 nm="Tenor" snm="T."
V:4 bass nm="Bass" snm="B."
V:1
 A4 | (c3 B c2) d2 | e6 f2 | (f2 e2) (d2 c2) | (c4 B4) | B4 B2 c2 | (d2 cd e2) d2 | c4 B4 | A8 | %9
w: Thrice|hap- * * py|man! thy|ma- * ker’s _|care _|Shall keep thee|from _ _ _ the|fow- ler’s|snare;|
w: He|that _ _ has|made his|re- * fuge _|God _|Shall find a|most _ _ _ se-|cure a-|bode;|
w: Then|will _ _ I|say, My|God, _ thy _|pow’r _|Shall be my|fort- * * * ress|and my|tow’r;|
 z4 c4 | (d3 c d2) e2 | f6 e2 | (de f2) (e2 ^d2) | e8 | c4 c2 B2 | (A3 B c2) A2 | d4 (d2 c2) | B8 | %18
w: Sa-|tan, _ _ the|fow- ler,|who _ _ be- *|trays|Un- guard- ed|souls _ _ a|thou- sand _|ways,|
w: Shall|walk _ _ all|day be-|neath _ _ his _|shade,|And there at|night _ _ shall|rest his _|head,|
w: I,|that _ _ am|form’d of|fee- * * ble _|dust,|Make thine al-|migh- * * ty|arm my _|trust,|
 c4 c2 d2 | e6 d2 | c4 B4 | A8 |] %22
w: un- guard- ed|souls a|thou- sand|ways.|
w: and there at|night shall|rest his|head.|
w: make thine al-|migh- ty|arm my|trust.|
V:2
 E4 | E6 G2 | A6 A2 | A4 E4 | E8 | E4 E2 E2 | (F4 E2) F2 | E4 (E2 D2) | C8 | z4 E4 | A6 A2 | %11
w: Thrice|hap- py|man! thy|ma- ker’s|care|Shall keep thee|from _ the|fow- ler’s _|snare;|Sa-|tan, the|
w: He|that has|made his|re- fuge|God|Shall find a|most _ se-|cure a- *|bode;|Shall|walk all|
w: Then|will I|say, My|God, thy|pow’r|Shall be my|fort- * ress|and my _|tow’r;|I,|that am|
 A6 A2 | (FG A2) (G2 F2) | G8 | z8 | z8 | z8 | z8 | E4 E2 F2 | (G4 A2) F2 | E4 E4 | E8 |] %22
w: fow- ler,|who _ _ be- *|trays|||||Un- guard- ed|souls _ a|thou- sand|ways.|
w: day be-|neath _ _ his _|shade,|||||And there at|night _ shall|rest his|head.|
w: form’d of|fee- * * ble _|dust,|||||Make thine al-|migh- * ty|arm my|trust.|
V:3
 c4 | e6 d2 | c6 A2 | (d2 c2) (B2 A2) | (A4 G4) | G4 G2 E2 | (A3 B c2) (BA) | A4 G4 | A8 | z4 c4 | %10
w: Thrice|hap- py|man! thy|ma- * ker’s _|care _|Shall keep thee|from _ _ the _|fow- ler’s|snare;|Sa-|
w: He|that has|made his|re- * fuge _|God _|Shall find a|most _ _ se- *|cure a-|bode;|Shall|
w: Then|will I|say, My|God, _ thy _|pow’r _|Shall be my|fort- * * ress _|and my|tow’r;|I,|
 f6 e2 | d6 A2 | B4 B4 | B8 | A4 A2 G2 | (F3 G A2) F2 | B4 (B2 A2) | G8 | A4 A2 A2 | (B4 c2) A2 | %20
w: tan, the|fow- ler,|who be-|trays|Un- guard- ed|souls _ _ a|thou- sand _|ways,|un- guard- ed|souls _ a|
w: walk all|day be-|neath his|shade,|And there at|night _ _ shall|rest his _|head,|and there at|night _ shall|
w: that am|form’d of|fee- ble|dust,|Make thine al-|migh- * * ty|arm my _|trust,|make thine al-|migh- * ty|
 A4 G4 | A8 |] %22
w: thou- sand|ways.|
w: rest his|head.|
w: arm my|trust.|
V:4
 A,,4 | A,6"^6" B,2 |"^6" C6 D2 |"^64""^53" A,4"^65" (G,2 A,2) |"^64""^53" E,8 | E,4 E,2 A,2 | %6
w: Thrice|hap- py|man! thy|ma- ker’s _|care|Shall keep thee|
w: He|that has|made his|re- fuge _|God|Shall find a|
w: Then|will I|say, My|God, thy _|pow’r|Shall be my|
"^6" (F,2"^6" E,D, C,2)"^6""^5" D,2 |"^64" E,4"^753" E,4 | A,,8 | z4 A,4 |"^6" F,6 A,2 | %11
w: from _ _ _ the|fow- ler’s|snare;|Sa-|tan, the|
w: most _ _ _ se-|cure a-|bode;|Shall|walk all|
w: fort- * * * ress|and my|tow’r;|I,|that am|
 D6"^6" C2 |"^7" B,4"^64""^5D" B,,4 | E,8 | %14
w: fow- ler,|who be-|trays|
w: day be-|neath his|shade,|
w: form’d of|fee- ble|dust,|
"^Notes: The original order of staves is Tenor - Alto - Air - Bass, with the Alto part printed in the treble clef anoctave above sounding pitch.The slur between the G# and A in the bass part on beat 2 of bar 3 is absent from the source and has beenadded editorially.Only the first verse of the text is given in the source: three further verses have been added editorially." z8 | %15
w: |
w: |
w: |
 z8 | z8 | z8 | A,4 A,2"^6" F,2 | (E,3 D,"^6" C,2) D,2 |"^64" E,4"^53" E,4 | A,,8 |] %22
w: |||Un- guard- ed|souls _ _ a|thou- sand|ways.|
w: |||And there at|night _ _ shall|rest his|head.|
w: |||Make thine al-|migh- * * ty|arm my|trust.|

